X: 34
T:Little Black Pig
R:Jig
M:6/8
S:Sharon Shannon, Clare (accordian)
D:Session tape, Doolin 1987
Z:Bernie Stocks
K:G %i.e.D modal
ABA DFA | ded dcA | GEE cEE |1 GAB c3 :|2 DED D3 :|
ded ecA | ded dcA | GEE cEE |1 GAB c3 :|2 DED D3 :|
<end>
<start>
